X: 8011
T: Connaughtman's Rambles, The
R: jig
M: 6/8
K: Dmajor
|:FAA dAA|BAB dAG|FAA dfe|dBA BAG|
FAA dAA|BAB def|aba ~f2e|1 dBA BAG:|2 dBA B2g||
|:fbb faa|~f3 deg|fbb faa|fed ~e2g|
fbb faa|~f3 def|gfe ~f2e|dBA B2g:|
|:faa gab|afd d2g|faa gab|afd ~e2g|
faa gab|afd def|aba ~f2e|1 dBA B2g:|2 dBA BAG||

